!!!!SEGMENT: pl-kk--kk-i-350--009_anonim--nigra-sum.krn
!!!cenid: 17xx:2069
!!!COM: Anonim
!!!COM-rismID: pe30004985
!!!CDT:
!!!CNT:
!!!OTL: Nigra sum
!!!PDT:
!!!AGN: Sacred
!!!YEC: Copyright 2022 Narodowy Instytut Fryderyka Chopina (https://polishscores.org)
!!!YEM: License CC-BY-4.0 (https://creativecommons.org/licenses/by/4.0)
!!!SMS-siglum: PL-Kk
!!!SMS-shelfmark: Kk.I.350
!!!SMS-shelfwork: 009 W
!!!SMS-variant:
!!!SMS-altvar:
!!!NIFC-rismSourceID: 1001145638
!!!NIFC-rismChildID: 1001145772
!!!NIFC-islandoraID: pl-kk:5809
!!!URL-pdf-islandora: https://repozytorium.nifc.pl/islandora/object/pl-kk%3A5809/datastream/PDF/view
!!!URL-scan: https://polish.musicsources.pl/pl/lokalizacje/galeria/rekopisy/5966 @EN{Scan on Polish Music Sources Website} @PL{Skany w portalu Dziedzictwo Muzyki Polskiej w otwartym dostępie}
!!!IIIF:
!!!ONB-nifc: UWAGA: utwory w zbiorze: 1. Gaudeamus, 2. Alleluia assumpta est Maria, 3. Surge propera, 4. Gaudeamus, 5. Propter veritatem, 6. Quae est ista, 7. Gaudeamus omnes, 8. Alleluia assumpta est Maria, 9. Nigra sum
!!!AIN: 1 alto 1 empty 1 tenor 1 vox
!!!key:
**kern	**text	**dynam	**kern	**text	**dynam	**kern	**text	**dynam	**kern	**text	**dynam
*part4	*	*	*part3	*	*	*part2	*	*	*part1	*	*
*staff4	*	*	*staff3	*	*	*staff2	*	*	*staff1	*	*
*Iempty	*	*	*Itenor	*	*	*Ialto	*	*	*Ivox	*	*
*I"Baſso Eripieno	*	*	*I"Tenore	*	*	*I"Alto	*	*	*I"Canto	*	*
*I'B rip	*	*	*I'T	*	*	*I'A	*	*	*I'C	*	*
*clefF4	*	*	*clefC4	*	*	*clefC3	*	*	*clefC1	*	*
*k[]	*	*	*k[]	*	*	*k[]	*	*	*k[]	*	*
*C:	*	*	*C:	*	*	*C:	*	*	*C:	*	*
*M3/4	*	*	*M3/4	*	*	*M3/4	*	*	*M3/4	*	*
=1	=1	=1	=1	=1	=1	=1	=1	=1	=1	=1	=1
*	*	*	*2\right	*	*	*2\right	*	*	*2\right	*	*
4C\	Ni-	.	2c\	Ni-	.	2g\	Ni-	.	2ee\	Ni-	.
4E\	.	.	.	.	.	.	.	.	.	.	.
4G\	-gra	.	4B\	-gra	.	4f\	-gra	.	4dd\	-gra	.
=2	=2	=2	=2	=2	=2	=2	=2	=2	=2	=2	=2
4E\	sum	.	2G/	sum	.	2e\	sum	.	2cc\	sum	.
4C\	.	.	.	.	.	.	.	.	.	.	.
4G\	sed	.	4G/	sed	.	4d\	sed	.	4b\	sed	.
=3	=3	=3	=3	=3	=3	=3	=3	=3	=3	=3	=3
.	.	.	.	.	.	16qqf/	.	.	16qqdd/	.	.
4C/	for-	.	2.G/	for-	.	8e\L	for-	.	8cc\L	for-	.
.	.	.	.	.	.	16d\L	.	.	16b\L	.	.
.	.	.	.	.	.	16e\JJ	.	.	16cc\JJ	.	.
4BB/	.	.	.	.	.	4f\	.	.	4dd\	.	.
4C/	.	.	.	.	.	4e\	.	.	4cc\	.	.
=4	=4	=4	=4	=4	=4	=4	=4	=4	=4	=4	=4
4G\	-mo-	.	4G/	-mo-	.	4e\	-mo-	.	4cc\	-mo-	.
4GG/	-sa	.	4G/	-sa	.	4d\	-sa	.	4b\	-sa	.
4r	.	.	4r	.	.	4r	.	.	4r	.	.
=5	=5	=5	=5	=5	=5	=5	=5	=5	=5	=5	=5
!	!	!LO:DY:rj:a:t=pia&colon;	!	!	!LO:DY:rj:a:t=p&colon;	!	!	!LO:DY:rj:a:t=p&colon;	!	!	!LO:DY:rj:a:t=pia
4C\	Ni-	p	2c\	Ni-	p	2g\	Ni-	p	2ee\	Ni-	p
4E\	.	.	.	.	.	.	.	.	.	.	.
4G\	-gra	.	4B\	-gra	.	4f\	-gra	.	4dd\	-gra	.
!	!	!	!	!	!	!LO:LB:g=original	!	!	!LO:LB:g=original	!	!
=6	=6	=6	=6	=6	=6	=6	=6	=6	=6	=6	=6
4E\	sum	.	2G/	sum	.	2e\	sum	.	2cc\	sum	.
4C\	.	.	.	.	.	.	.	.	.	.	.
4G\	sed	.	4G/	sed	.	4d\	sed	.	4b\	sed	.
=7	=7	=7	=7	=7	=7	=7	=7	=7	=7	=7	=7
.	.	.	.	.	.	16qqf/	.	.	16qqdd/	.	.
4C/	for-	.	2.G/	for-	.	8e\L	for-	.	8cc\L	for-	.
.	.	.	.	.	.	16d\L	.	.	16b\L	.	.
.	.	.	.	.	.	16e\JJ	.	.	16cc\JJ	.	.
4BB/	.	.	.	.	.	4f\	.	.	4dd\	.	.
4C/	.	.	.	.	.	4e\	.	.	4cc\	.	.
!LO:LB:g=original	!	!	!LO:LB:g=original	!	!	!	!	!	!	!	!
=8	=8	=8	=8	=8	=8	=8	=8	=8	=8	=8	=8
4G\	-mo-	.	4G/	-mo-	.	4e\	-mo-	.	4cc\	-mo-	.
4GG/	-sa	.	4G/	-sa	.	4d\	-sa	.	4b\	-sa	.
4r	.	.	4r	.	.	4r	.	.	4r	.	.
=9	=9	=9	=9	=9	=9	=9	=9	=9	=9	=9	=9
!	!	!LO:DY:rj:a:t=for	!	!	!LO:DY:rj:a:t=fo	!	!	!LO:DY:rj:a	!	!	!LO:DY:rj:a:t=fo
8GG/	fi-	f	8G/	fi-	f	8d\	fi-	f	8b\	fi-	f
8G\	-li-	.	8G/	-li-	.	8c\	-li-	.	8a\	-li-	.
4G\	-a	.	4G/	-a	.	8B\L	-a	.	8g\L	-a	.
.	.	.	.	.	.	8c\J	.	.	8a\J	.	.
4G\	Je-	.	4G/	Je-	.	8d\L	Je-	.	8b\L	Je-	.
.	.	.	.	.	.	8e\J	.	.	8cc\J	.	.
=10	=10	=10	=10	=10	=10	=10	=10	=10	=10	=10	=10
4.BB/	-ru-	.	4.G/	-ru-	.	4.f\	-ru-	.	4.dd\	-ru-	.
8BB/	-sa-	.	8G/	-sa-	.	8f\	-sa-	.	8dd\	-sa-	.
4C/	-lem	.	4G/	-lem	.	4e\	-lem	.	4cc\	-lem	.
=11	=11	=11	=11	=11	=11	=11	=11	=11	=11	=11	=11
!	!	!LO:DY:rj:a:t=p&colon;	!	!	!LO:DY:rj:a:t=p&colon;	!	!	!LO:DY:rj:a	!	!	!LO:DY:rj:a
8GG/	fi-	p	8B\	fi-	p	8g\	fi-	p	8dd\	fi-	p
8G\	-li-	.	8A\	-li-	.	8g\	-li-	.	8cc\	-li-	.
!	!LO:MO:mod=-ae	!	!	!	!	!	!	!	!	!	!
4G\	-a	.	8G\L	-a	.	4g\	-a	.	8b\L	-a	.
.	.	.	8A\J	.	.	.	.	.	8cc\J	.	.
4G\	Je-	.	8B\L	Je-	.	4g\	Je-	.	8dd\L	Je-	.
.	.	.	8c\J	.	.	.	.	.	8ee\J	.	.
!	!	!	!	!	!	!LO:LB:g=original	!	!	!LO:LB:g=original	!	!
=12	=12	=12	=12	=12	=12	=12	=12	=12	=12	=12	=12
4.BB/	-ru-	.	4.d\	-ru-	.	4.g\	-ru-	.	4.ff\	-ru-	.
8BB/	-sa-	.	8d\	-sa-	.	8g\	-sa-	.	8ff\	-sa-	.
4C/	-lem	.	4c\	-lem	.	4g\	-lem	.	4ee\	-lem	.
=13	=13	=13	=13	=13	=13	=13	=13	=13	=13	=13	=13
!	!	!LO:DY:rj:a:t=for	!	!	!LO:DY:rj:a:t=fo	!	!	!LO:DY:rj:a:t=for	!	!	!LO:DY:rj:a:t=fo
8BB/L	si-	f	8d\L	si-	f	8a\L	si-	f	8ff\L	si-	f
8C/J	.	.	8c\J	.	.	8g\J	.	.	8ee\J	.	.
4C/	-cut	.	4c\	-cut	.	4g\	-cut	.	4ee\	-cut	.
4r	.	.	4r	.	.	4r	.	.	4r	.	.
!LO:LB:g=original	!	!	!LO:LB:g=original	!	!	!	!	!	!	!	!
=14	=14	=14	=14	=14	=14	=14	=14	=14	=14	=14	=14
4GG/	ta-	.	4B\	ta-	.	4f\	ta-	.	4dd\	ta-	.
4G\	.	.	4c\	.	.	4e\	.	.	4cc\	.	.
4G\	-ber-	.	4d\	-ber-	.	4d\	-ber-	.	4b\	-ber-	.
=15	=15	=15	=15	=15	=15	=15	=15	=15	=15	=15	=15
4.C/	-na-	.	4.e\	-na-	.	4.e\	-na-	.	4.cc\	-na-	.
8BB/	-cu-	.	8d\	-cu-	.	8f\	-cu-	.	8dd\	-cu-	.
4C/	-la	.	4c\	-la	.	4g\	-la	.	4ee\	-la	.
=16	=16	=16	=16	=16	=16	=16	=16	=16	=16	=16	=16
4C\	ce-	.	4G/	ce-	.	8g\L	ce-	.	8ee\L	ce-	.
.	.	.	.	.	.	8e\J	.	.	8cc\J	.	.
4F\	.	.	2A/	.	.	8a\L	.	.	8ff\L	.	.
.	.	.	.	.	.	8g\	.	.	8ee\	.	.
4F#X\	.	.	.	.	.	8f\	.	.	8dd\	.	.
.	.	.	.	.	.	8e\J	.	.	8cc\J	.	.
=17	=17	=17	=17	=17	=17	=17	=17	=17	=17	=17	=17
.	.	.	.	.	.	8qqe/	.	.	8qqcc/	.	.
*2\right	*	*	*	*	*	*	*	*	*	*	*
2G\	-dar	.	2G/	-dar	.	2d\	-dar	.	2b\	-dar	.
4r	.	.	4r	.	.	4r	.	.	4r	.	.
!	!	!	!	!	!	!LO:PB:g=original	!	!	!	!	!
=18	=18	=18	=18	=18	=18	=18	=18	=18	=18	=18	=18
4C/	si-	.	4E/	si-	.	2g\	si-	.	2cc\	si-	.
4D/	.	.	4F/	.	.	.	.	.	.	.	.
4E/	-cut	.	4G/	-cut	.	4g\	-cut	.	4b-X\	-cut	.
!	!	!	!	!	!	!	!	!	!LO:LB:g=original	!	!
=19	=19	=19	=19	=19	=19	=19	=19	=19	=19	=19	=19
4F\	pel-	.	4A\	pel-	.	4a\	pel-	.	4cc\	pel-	.
4G\	.	.	4B-X\	.	.	4g\	.	.	4b-X\	.	.
4A\	-les	.	4c\	-les	.	4f\	-les	.	4a\	-les	.
=20	=20	=20	=20	=20	=20	=20	=20	=20	=20	=20	=20
8B-X\	Sa-	.	8d\	Sa-	.	8d\	Sa-	.	8g\	Sa-	.
!	!	!	!	!	!	!	!	!	!LO:SIC:v:s=8b-	!	!
8G\	-lo-	.	8d\	-lo-	.	8g\	-lo-	.	8b\	-lo-	.
4c\	-mo-	.	2c\	-mo-	.	4f\	-mo-	.	4a\	-mo-	.
4C/	.	.	.	.	.	4e\	.	.	4g\	.	.
=21	=21	=21	=21	=21	=21	=21	=21	=21	=21	=21	=21
2F\	-nis	.	2c\	-nis	.	2f\	-nis	.	2a\	-nis	.
!	!	!	!LO:TX:b:t=V&colon; S&colon;	!	!	!	!	!	!	!	!
4r	.	.	4r	.	.	4r	.	.	4r	.	.
!LO:PB:g=original	!	!	!LO:PB:g=original	!	!	!	!	!	!	!	!
=22	=22	=22	=22	=22	=22	=22	=22	=22	=22	=22	=22
4D\	Si-	.	4F#X/	si-	.	2a\	si-	.	2dd\	si-	.
4E\	.	.	4G/	.	.	.	.	.	.	.	.
4F#X\	-cut	.	4A/	-cut	.	4a\	-cut	.	4cc\	-cut	.
=23	=23	=23	=23	=23	=23	=23	=23	=23	=23	=23	=23
4G\	pel-	.	4Bn\	pel-	.	4bn\	pel-	.	4dd\	pel-	.
4A\	.	.	4c\	.	.	4a\	.	.	4cc\	.	.
4Bn\	-les	.	4d\	-les	.	4g\	-les	.	4bn\	-les	.
=24	=24	=24	=24	=24	=24	=24	=24	=24	=24	=24	=24
8c\	Sa-	.	8e\	Sa-	.	8e\	Sa-	.	8a\	Sa-	.
8A\	-lo-	.	8e\	-lo-	.	8a\	-lo-	.	8cc\	-lo-	.
4d\	-mo-	.	2d\	-mo-	.	4g\	-mo-	.	4b\	-mo-	.
4D/	.	.	.	.	.	4f#X\	.	.	4a\	.	.
!	!	!	!	!	!	!LO:LB:g=original	!	!	!	!	!
=25	=25	=25	=25	=25	=25	=25	=25	=25	=25	=25	=25
2G\	-nis	.	2d\	-nis	.	2g\	-nis	.	2b\	-nis	.
4r	.	.	4r	.	.	4r	.	.	4r	.	.
!	!	!	!	!	!	!	!	!	!LO:PB:g=original	!	!
=26	=26	=26	=26	=26	=26	=26	=26	=26	=26	=26	=26
8G\L	no-	.	2.B\	no-	.	2.g\	no-	.	2.dd\	no-	.
8B\	.	.	.	.	.	.	.	.	.	.	.
8d\	.	.	.	.	.	.	.	.	.	.	.
8B\	.	.	.	.	.	.	.	.	.	.	.
8G\	.	.	.	.	.	.	.	.	.	.	.
8Fn\J	.	.	.	.	.	.	.	.	.	.	.
=27	=27	=27	=27	=27	=27	=27	=27	=27	=27	=27	=27
8E\L	-li-	.	4c\	-li-	.	4g\	-li-	.	4ee\	-li-	.
8C\J	.	.	.	.	.	.	.	.	.	.	.
8E\L	-te	.	4c\	-te	.	4g\	-te	.	4ee\	-te	.
8G\J	.	.	.	.	.	.	.	.	.	.	.
4c\	me	.	4c\	me	.	4g\	me	.	4ee\	me	.
!LO:LB:g=original	!	!	!	!	!	!	!	!	!	!	!
=28	=28	=28	=28	=28	=28	=28	=28	=28	=28	=28	=28
8C/L	con-	.	4G/	con-	.	8e\L	con-	.	4cc\	con-	.
8BB/J	.	.	.	.	.	8d\J	.	.	.	.	.
8C/L	-si-	.	4G/	-si-	.	8e\L	-si-	.	4cc\	-si-	.
8D/	.	.	.	.	.	8f\J	.	.	.	.	.
8E/J	.	.	4G/	-de-	.	8g\L	-de-	.	4cc\	-de-	.
8F\	-de-	.	.	.	.	8a\J	.	.	.	.	.
!	!	!	!LO:LB:g=original	!	!	!	!	!	!	!	!
=29	=29	=29	=29	=29	=29	=29	=29	=29	=29	=29	=29
4G\	-ra-	.	4B\	-ra-	.	4g\	-ra-	.	4dd\	-ra-	.
4GG/	-re	.	4B\	-re	.	4g\	-re	.	4dd\	-re	.
4r	.	.	4r	.	.	4r	.	.	4r	.	.
=30	=30	=30	=30	=30	=30	=30	=30	=30	=30	=30	=30
!	!	!LO:DY:a	!	!	!	!	!	!	!	!	!
4r	.	p	4r	.	.	4r	.	.	4r	.	.
!LO:TX:t=P:problem=brak oznaczenia tempa	!	!	!LO:TX:a:B:t=adagio	!	!	!LO:TX:a:B:t=ada&colon;	!	!	!LO:TX:rj:a:B:t=adagio	!	!LO:DY:rj:a:t=pia
2G\	quod	.	2G/	quod	.	2d\	quod	.	2b\	quod	p
=31	=31	=31	=31	=31	=31	=31	=31	=31	=31	=31	=31
!	!	!	!	!	!LO:DY:a:t=piano	!	!	!LO:DY:tj:a:t=pia	!	!	!
2F#X\	fu-	.	2A/	fu-	p	2e-X\	fu-	p	2cc\	fu-	.
4F#\	-sca	.	4A/	-sca	.	4e-\	-sca	.	4cc\	-sca	.
!	!	!	!	!	!	!LO:LB:g=original	!	!	!	!	!
=32	=32	=32	=32	=32	=32	=32	=32	=32	=32	=32	=32
4G\	sim	.	4G/	sim	.	4d\	sim	.	4b\	sim,	.
4r	.	.	4r	.	.	4r	.	.	4r	.	.
4G\	quod	.	4G/	quod	.	4d\	quod	.	4b\	quod	.
=33	=33	=33	=33	=33	=33	=33	=33	=33	=33	=33	=33
!LO:SIC:v:s=2F#	!	!	!	!	!	!LO:N:vis=2.	!	!	!	!	!
2F\	fu-	.	2A/	fu-	.	2e-X\	fu-	.	2cc\	fu-	.
!LO:SIC:v:s=4F#	!	!	!	!	!	!	!	!	!	!	!
4F\	-sca	.	4A/	-sca	.	4e-\	-sca	.	4cc\	-sca	.
!	!	!	!	!	!	!	!	!	!LO:LB:g=original	!	!
=34	=34	=34	=34	=34	=34	=34	=34	=34	=34	=34	=34
!	!	!	!	!	!	!	!	!	!LO:N:vis=2.	!	!
2G\	sim	.	2G/	sim	.	2d\	sim	.	2b\	sim	.
4r	.	.	4r;	.	.	4r;	.	.	4r;	.	.
!LO:LB:g=original	!	!	!	!	!	!	!	!	!	!	!
=35	=35	=35	=35	=35	=35	=35	=35	=35	=35	=35	=35
!LO:TX:rj:a:B:t=Andte	!	!	!LO:TX:a:B:t=andte	!	!LO:DY:rj:a:t=fo	!LO:TX:a:B:t=andte	!	!	!LO:TX:a:B:t=andte	!	!
8G\L	qui-	.	2B\	qui-	f	2g\	qui-	.	2dd\	qui-	.
8B\	.	.	.	.	.	.	.	.	.	.	.
8d\	.	.	.	.	.	.	.	.	.	.	.
8B\J	.	.	.	.	.	.	.	.	.	.	.
4G\	-a	.	4B\	-a	.	4g\	-a	.	4dd\	-a	.
=36	=36	=36	=36	=36	=36	=36	=36	=36	=36	=36	=36
4A\	de-	.	4c\	de-	.	4f#X\	de-	.	4dd\	de-	.
4A\	-co-	.	4c\	-co-	.	4f#\	-co-	.	4dd\	-co-	.
4A\	-lo-	.	4c\	-lo-	.	4f#\	-lo-	.	4dd\	-lo-	.
!	!	!	!LO:LB:g=original	!	!	!	!	!	!	!	!
=37	=37	=37	=37	=37	=37	=37	=37	=37	=37	=37	=37
4B\	-ra-	.	4G/	-ra-	.	4fn\	-ra-	.	4dd\	-ra-	.
4B\	-vit	.	4G/	-vit	.	4f\	-vit	.	4dd\	-vit	.
4B\	me	.	4G/	me	.	4f\	me	.	4dd\	me	.
=38	=38	=38	=38	=38	=38	=38	=38	=38	=38	=38	=38
4c\	sol	.	4G/	sol	.	4e\	sol	.	4cc\	sol	.
8c\L	fi-	.	8e\L	fi-	.	4g\	fi-	.	4r	.	.
8B\J	.	.	8d\J	.	.	.	.	.	.	.	.
8A\	-li-	.	8c\	-li-	.	8f\	-li-	.	4r	.	.
8G\	-i	.	8B\	-i	.	8e\	-i	.	.	.	.
!	!	!	!	!	!	!LO:LB:g=original	!	!	!	!	!
=39	=39	=39	=39	=39	=39	=39	=39	=39	=39	=39	=39
8F\L	ma-	.	2G/	ma-	.	8d\L	ma-	.	2b\	ma-	.
8E\J	.	.	.	.	.	8c\J	.	.	.	.	.
8D\L	.	.	.	.	.	8B\L	.	.	.	.	.
8E\J	.	.	.	.	.	8c\J	.	.	.	.	.
8F\L	-tris	.	4G/	-tris	.	8d\L	-tris	.	4b\	-tris	.
8D\J	.	.	.	.	.	8B\J	.	.	.	.	.
!LO:LB:g=original	!	!	!	!	!	!	!	!	!	!	!
=40	=40	=40	=40	=40	=40	=40	=40	=40	=40	=40	=40
8E\L	me-	.	4G\	me-	.	8c\L	me-	.	8cc\L	me-	.
8F\J	.	.	.	.	.	8d\J	.	.	8b\J	.	.
4G\	.	.	4c\	.	.	4e\	.	.	2g\	.	.
4GG/	.	.	4B\	.	.	4d\	.	.	.	.	.
!	!	!	!	!	!	!	!	!	!LO:LB:g=original	!	!
=41	=41	=41	=41	=41	=41	=41	=41	=41	=41	=41	=41
2C/	-ae	.	2c\	-ae	.	2e\	-ae	.	2g/	-ae	.
4r	.	.	4r	.	.	4r	.	.	4r	.	.
=42	=42	=42	=42	=42	=42	=42	=42	=42	=42	=42	=42
!LO:TX:t=P:problem=mixed beam	!	!	!	!	!	!	!	!	!	!	!
8A\L	pu-	.	2A/	pu-	.	2e\	pu-	.	2cc\	pu-	.
8AA/	.	.	.	.	.	.	.	.	.	.	.
8C/	.	.	.	.	.	.	.	.	.	.	.
8E/J	.	.	.	.	.	.	.	.	.	.	.
8A\L	-gna-	.	4A/	-gna-	.	4e\	-gna-	.	4cc\	-gna-	.
8c\J	.	.	.	.	.	.	.	.	.	.	.
!	!	!	!LO:LB:g=original	!	!	!	!	!	!	!	!
=43	=43	=43	=43	=43	=43	=43	=43	=43	=43	=43	=43
4B\	-ve-	.	4G#X/	-ve-	.	2e\	-ve-	.	4dd\	-ve-	.
4G#X\	.	.	4E/	.	.	.	.	.	4b\	.	.
4A\	-runt	.	4A/	-runt	.	4e\	-runt	.	4cc\	-runt	.
=44	=44	=44	=44	=44	=44	=44	=44	=44	=44	=44	=44
4F\	con-	.	2A/	con-	.	4d\	con-	.	2cc\	con-	.
4E\	.	.	.	.	.	4e\	.	.	.	.	.
4D#X\	-tra	.	4A/	-tra	.	4f#X\	-tra	.	4cc\	-tra	.
=45	=45	=45	=45	=45	=45	=45	=45	=45	=45	=45	=45
2E\	me	.	2G#X/	me	.	2e\	me	.	2b\	me	.
4r	.	.	4r	.	.	4r	.	.	4r	.	.
!LO:LB:g=original	!	!	!	!	!	!LO:LB:g=original	!	!	!	!	!
=46	=46	=46	=46	=46	=46	=46	=46	=46	=46	=46	=46
!LO:TX:t=P:problem=mixed beam	!	!LO:DY:rj:a:t=p&colon;	!	!	!LO:DY:rj:a:t=p&colon;	!	!	!LO:DY:rj:a	!	!	!LO:DY:rj:a:t=p&colon;
8A\L	pu-	p	2A/	pu-	p	2e\	pu-	p	2cc\	pu-	p
8AA/	.	.	.	.	.	.	.	.	.	.	.
8C/	.	.	.	.	.	.	.	.	.	.	.
8E/J	.	.	.	.	.	.	.	.	.	.	.
8A\L	-gna-	.	4A/	-gna-	.	4e\	-gna-	.	4cc\	-gna-	.
8c\J	.	.	.	.	.	.	.	.	.	.	.
=47	=47	=47	=47	=47	=47	=47	=47	=47	=47	=47	=47
4B\	-ve-	.	4G#X/	-ve-	.	2e\	-ve-	.	4dd\	-ve-	.
4G#X\	.	.	4E/	.	.	.	.	.	4b\	.	.
4A\	-runt	.	4A/	-runt	.	4e\	-runt	.	4cc\	-runt	.
=48	=48	=48	=48	=48	=48	=48	=48	=48	=48	=48	=48
4F\	con-	.	2A/	con-	.	4d\	con-	.	2cc\	con-	.
4E\	.	.	.	.	.	4e\	.	.	.	.	.
4D#X\	-tra	.	4A/	-tra	.	4f#X\	-tra	.	4cc\	-tra	.
!	!	!	!	!	!	!	!	!	!LO:LB:g=original	!	!
=49	=49	=49	=49	=49	=49	=49	=49	=49	=49	=49	=49
2E\	me	.	2G#X/	me	.	2e\	me	.	2b\	me	.
4r	.	.	4r	.	.	4r	.	.	4r	.	.
!	!	!	!LO:LB:g=original	!	!	!	!	!	!	!	!
=50	=50	=50	=50	=50	=50	=50	=50	=50	=50	=50	=50
!LO:TX:t=P:problem=mixed beam	!	!LO:DY:rj:a:t=fo	!	!	!LO:DY:rj:a:t=for	!	!	!LO:DY:rj:a:t=fo	!	!	!LO:DY:rj:a:t=fo
8c\L	po-	f	2c\	po-	f	2g\	po-	f	2ee\	po-	f
8C/	.	.	.	.	.	.	.	.	.	.	.
8E/	.	.	.	.	.	.	.	.	.	.	.
8G/J	.	.	.	.	.	.	.	.	.	.	.
8c\L	-su-	.	4c\	-su-	.	4g\	-su-	.	4ee\	-su-	.
8G\J	.	.	.	.	.	.	.	.	.	.	.
=51	=51	=51	=51	=51	=51	=51	=51	=51	=51	=51	=51
8E\L	-e-	.	4.c\	-e-	.	4g\	-e-	.	4ee\	-e-	.
8C\J	.	.	.	.	.	.	.	.	.	.	.
8E\L	-runt	.	.	.	.	4g\	-runt	.	4ee\	-runt	.
8G\J	.	.	8B\	-runt	.	.	.	.	.	.	.
4C/	me	.	4c\	me	.	4g\	me	.	4ee\	me	.
!LO:LB:g=original	!	!	!	!	!	!	!	!	!	!	!
=52	=52	=52	=52	=52	=52	=52	=52	=52	=52	=52	=52
4C/	cu-	.	4c\	cu-	.	4g\	cu-	.	4ee\	cu-	.
4BB/	-sto-	.	4G\	-sto-	.	4f\	-sto-	.	4dd\	-sto-	.
4C/	-dem	.	4c\	-dem	.	4e\	-dem	.	4cc\	-dem	.
!	!	!	!	!	!	!LO:LB:g=original	!	!	!	!	!
=53	=53	=53	=53	=53	=53	=53	=53	=53	=53	=53	=53
4F\	in	.	4c\	in	.	4a\	in	.	4cc\	in	.
4.F\	vi-	.	4.c\	vi-	.	4.a\	vi-	.	4.cc\	vi-	.
8F#X\	-ne-	.	8A\	-ne-	.	8a\	-ne-	.	8cc\	-ne-	.
=54	=54	=54	=54	=54	=54	=54	=54	=54	=54	=54	=54
2G\	-is	.	2B\	-is	.	2g\	-is	.	2dd\	-is	.
4r	.	.	4r	.	.	4r	.	.	4r	.	.
=55	=55	=55	=55	=55	=55	=55	=55	=55	=55	=55	=55
!LO:TX:t=P:problem=mixed beam	!	!	!	!	!	!	!	!	!	!	!
8G\L	po-	.	2B\	po-	.	2g\	po-	.	2dd\	po-	.
8GG/	.	.	.	.	.	.	.	.	.	.	.
8BB/	.	.	.	.	.	.	.	.	.	.	.
8D/J	.	.	.	.	.	.	.	.	.	.	.
8G\L	-su-	.	4B\	-su-	.	4g\	-su-	.	4dd\	-su-	.
8B\J	.	.	.	.	.	.	.	.	.	.	.
!	!	!	!	!	!	!	!	!	!LO:LB:g=original	!	!
=56	=56	=56	=56	=56	=56	=56	=56	=56	=56	=56	=56
8G\L	-e-	.	4B\	-e-	.	4g\	-e-	.	4dd\	-e-	.
8D\J	.	.	.	.	.	.	.	.	.	.	.
8BB/L	-runt	.	4B\	-runt	.	4g\	-runt	.	4dd\	-runt	.
8D/J	.	.	.	.	.	.	.	.	.	.	.
4GG/	me	.	4B\	me	.	4g\	me	.	4dd\	me	.
!	!	!	!LO:LB:g=original	!	!	!	!	!	!	!	!
=57	=57	=57	=57	=57	=57	=57	=57	=57	=57	=57	=57
4GG/	cu-	.	4B\	cu-	.	4g\	cu-	.	4dd\	cu-	.
4AA/	-sto-	.	4A\	-sto-	.	4f\	-sto-	.	4cc\	-sto-	.
4BB/	-dem	.	4G\	-dem	.	4d\	-dem	.	4b\	-dem	.
!LO:LB:g=original	!	!	!	!	!	!	!	!	!	!	!
=58	=58	=58	=58	=58	=58	=58	=58	=58	=58	=58	=58
4C/	.	.	2.G/	in	.	4e\	in	.	4cc\	in	.
4D/	in	.	.	.	.	4f\	.	.	4b\	.	.
4E/	.	.	.	.	.	4g\	.	.	4cc\	.	.
!	!	!	!	!	!	!LO:LB:g=original	!	!	!	!	!
=59	=59	=59	=59	=59	=59	=59	=59	=59	=59	=59	=59
4F\	vi-	.	4d\	vi-	.	4a\	vi-	.	4ff\	vi-	.
4G\	.	.	4.c\	.	.	4.g\	.	.	4.ee\	.	.
4GG/	-ne-	.	.	.	.	.	.	.	.	.	.
.	.	.	8B\	-ne-	.	8g\	-ne-	.	8dd\	-ne-	.
=60	=60	=60	=60	=60	=60	=60	=60	=60	=60	=60	=60
2C/	-is	.	2c\	-is	.	2g\	-is	.	2.ee\	-is	.
4r	.	.	4r	.	.	4r	.	.	.	.	.
==	==	==	==	==	==	==	==	==	==	==	==
*-	*-	*-	*-	*-	*-	*-	*-	*-	*-	*-	*-
!!!system-decoration: [(s1,s2,s3,s4)]
!!!EED: Leszek Kubiak
!!!EEV: 2021-02-26
!!!ENC: Andrzej Kubiczek
!!!END: 2021-02-18
